icons/select-by-attributes-32.svg

<?xml version="1.0" encoding="UTF-8"?><svg id="icons" xmlns="http://www.w3.org/2000/svg" viewBox="0 0 32 32"><defs><style>.cls-1{fill:none;}.cls-1,.cls-2,.cls-3{stroke-width:0px;}.cls-3{fill:#6f6f6f;opacity:.3;}</style></defs><path class="cls-3" d="M4,17V3h9c-.02521,1.40051.13568,3.02496.27637,3.99219.99158,6.81805,3.9953,4.57184,5.82031,11.30859.81116,2.99426.21667,5.59753,2.0285,9.69922h-4.12518v-10c0-.55273-.44727-1-1-1H4Z"/><path class="cls-2" d="M19.08008,24.97363c-.14355-.67773-.23145-1.33301-.34082-2.18555l.99219-.12695c.10547.82812.19141,1.46484.32715,2.10547l-.97852.20703ZM19.09668,18.30078l-.96484.26172c.22949.85156.31445,1.51562.36719,2.05371l.99609-.09766c-.05762-.5791-.14844-1.29492-.39844-2.21777ZM17.24219,14.19238l-.79688.60352c.39941.5293.72754,1.1084,1.00098,1.77051l.92383-.38086c-.30664-.74316-.6748-1.39453-1.12793-1.99316ZM15.02539,13.2373l.71875-.69531c-.49414-.51172-.89746-.98047-1.25977-1.60645l-.86523.50195c.4375.75488.93457,1.31152,1.40625,1.7998ZM12.74414,9.3252l.96094-.27539c-.17383-.60645-.31836-1.29883-.42871-2.05762l-.99023.14453c.11719.80273.27148,1.53906.45801,2.18848ZM5,7h-1v2h1v-2ZM5,4h1v-1h-2v2h1v-1ZM10,3h-2v1h2v-1ZM5,11h-1v2h1v-2ZM14.99854,3c-.00116.26227-.01331.5224-.00146.78711.0033.07397.0083.14032.0119.21289h12.99103v5.97058c-2.12677.07489-5.90765.6449-8.9964,3.41071.15674.2749.31342.58661.45453.93134,2.88519-2.71289,6.50641-3.26611,8.54187-3.34137v16.02875h-5v1h6V3h-14.00146ZM12.05664,4.93359l.99805-.06641c-.02112-.31085-.04486-.62244-.05469-.97192s0-.89526,0-.89526h-1s-.01105.63489,0,1c.01105.36505.0368.63593.05664.93359ZM19,28h2v-1h-2v1ZM1,18h15v13H1v-13ZM2,30h13v-11H2v11ZM4,28h1v-1h-1v1ZM4,22h1v-1h-1v1ZM4,25h1v-1h-1v1ZM6,27v1h7v-1h-7ZM6,25h7v-1h-7v1ZM6,22h7v-1h-7v1ZM5,15h-1v2h1v-2Z"/><rect class="cls-1" width="32" height="32"/></svg>

<svg xmlns="http://www.w3.org/2000/svg" viewBox="0 0 32 32"><path d="M4 17V3h9c-.025 1.4.136 3.025.276 3.992.992 6.818 3.996 4.572 5.82 11.309.812 2.994.217 5.597 2.03 9.699H17V18a1 1 0 0 0-1-1H4z" fill="#6f6f6f" opacity=".3" stroke-width="0"/><path d="M19.08 24.974c-.143-.678-.231-1.333-.34-2.186l.991-.127c.106.828.192 1.465.328 2.106l-.979.207zm.017-6.673l-.965.262c.23.851.314 1.515.367 2.053l.996-.097a12.987 12.987 0 0 0-.398-2.218zm-1.855-4.109l-.797.604c.4.53.728 1.108 1.001 1.77l.924-.38a8.834 8.834 0 0 0-1.128-1.994zm-2.217-.955l.72-.695c-.495-.512-.898-.98-1.26-1.606l-.866.501c.438.755.935 1.312 1.406 1.8zm-2.28-3.912l.96-.275a15.777 15.777 0 0 1-.429-2.058l-.99.145c.117.802.272 1.539.458 2.188zM5 7H4v2h1V7zm0-3h1V3H4v2h1V4zm5-1H8v1h2V3zm-5 8H4v2h1v-2zm9.999-8c-.002.262-.014.522-.002.787.003.074.008.14.012.213H28v5.97c-2.127.075-5.908.645-8.996 3.411.156.275.313.587.454.932C22.343 11.6 25.965 11.047 28 10.97V27h-5v1h6V3H14.999zm-2.942 1.934l.998-.067c-.021-.31-.045-.622-.055-.972S13 3 13 3h-1s-.011.635 0 1 .037.636.057.934zM19 28h2v-1h-2v1zM1 18h15v13H1V18zm1 12h13V19H2v11zm2-2h1v-1H4v1zm0-6h1v-1H4v1zm0 3h1v-1H4v1zm2 2v1h7v-1H6zm0-2h7v-1H6v1zm0-3h7v-1H6v1zm-1-7H4v2h1v-2z" stroke-width="0"/><path stroke-width="0" fill="none" d="M0 0h32v32H0z"/></svg>
